static/assets/images/exchanges/bex.svg

<svg width="249" height="256" viewBox="0 0 249 256" fill="none" xmlns="http://www.w3.org/2000/svg">
<path d="M220.738 171.263C231.813 186.108 234.135 202.245 227.704 219.673C221.272 237.102 208.512 248.535 189.421 253.97C180.29 256.57 170.976 256.672 161.48 254.277C151.982 251.881 144.198 247.349 138.126 240.679C116.104 250.549 95.4134 250.066 76.0559 239.229C56.6973 228.393 45.0643 210.783 41.1579 186.399C31.5228 184.042 23.3334 179.4 16.5904 172.471C9.84723 165.542 4.98389 156.804 2.00034 146.254C-2.78905 129.32 1.02192 113.462 13.4335 98.679C25.8449 83.8969 40.2468 77.4723 56.6377 79.4043L85.4309 82.9047C88.5307 72.7232 93.88 63.6257 101.48 55.6124C109.08 47.6002 118.057 41.8193 128.415 38.2697L122.29 16.6169C121.27 13.0081 121.601 9.68898 123.286 6.65964C124.97 3.63041 127.611 1.60372 131.208 0.579583C134.804 -0.444451 138.113 -0.111515 141.131 1.57849C144.151 3.26861 146.171 5.91797 147.191 9.5269L154.257 34.5116C165.359 34.6506 175.151 37.0359 183.638 41.6696C192.123 46.3022 200.366 53.7788 208.367 64.0994L232.439 57.2461C236.035 56.2218 239.344 56.5544 242.362 58.2447C245.382 59.935 247.402 62.5844 248.422 66.1928C249.443 69.8022 249.111 73.1209 247.427 76.1509C245.742 79.1798 243.102 81.2058 239.504 82.2301L217.924 88.3756C220.354 99.0821 220.306 109.745 217.778 120.362C215.251 130.981 210.483 140.287 203.476 148.281L220.738 171.263ZM120.64 210.563C118.52 203.067 117.081 195.602 116.325 188.169C115.567 180.735 115.491 173.333 116.098 165.962C110.597 170.827 104.358 174.928 97.3794 178.265C90.4008 181.601 83.2358 184.017 75.8854 185.51C78.9468 196.336 84.474 203.986 92.466 208.461C100.458 212.934 109.849 213.634 120.64 210.563ZM70.6129 151.015C79.4668 148.494 86.9696 145.158 93.1202 141.008C99.2708 136.856 106.799 129.914 115.705 120.179L60.0135 113.538C51.0476 112.491 44.2193 114.511 39.5286 119.596C34.8389 124.681 33.5527 130.971 35.6733 138.466C37.7149 145.684 41.5585 150.289 47.204 152.281C52.8495 154.273 60.6528 153.852 70.6129 151.015ZM179.999 220.658C186.915 218.688 191.831 214.664 194.747 208.585C197.661 202.506 197.266 197.144 193.56 192.499L155.132 142.249C152.387 152.63 150.819 162.674 150.427 172.385C150.033 182.095 150.858 190.56 152.899 197.778C155.49 206.938 159.063 213.495 163.62 217.447C168.175 221.4 173.635 222.47 179.999 220.658ZM181.244 120.416C183.226 116.851 184.4 112.544 184.764 107.49C185.128 102.437 184.604 97.412 183.191 92.4148C180.679 83.5312 175.653 76.864 168.115 72.411C160.578 67.9579 152.52 66.9519 143.943 69.3938C138.963 70.8126 134.495 72.984 130.539 75.9103C126.584 78.8366 123.516 82.2589 121.336 86.1795L157.947 91.9529L181.244 120.416Z" fill="#FDC944"/>
</svg>

<svg xmlns="http://www.w3.org/2000/svg" fill="none" viewBox="0 0 249 256"><path fill="#FDC944" d="M220.738 171.263q16.612 22.268 6.966 48.41-9.647 26.144-38.283 34.297-13.697 3.9-27.941.307-14.246-3.593-23.354-13.598-33.034 14.805-62.07-1.45-29.039-16.254-34.898-52.83-14.453-3.535-24.568-13.928Q6.476 162.078 2 146.254q-7.184-25.4 11.434-47.575Q32.05 76.506 56.638 79.404l28.793 3.5q4.65-15.27 16.049-27.292 11.399-12.018 26.935-17.342l-6.125-21.653q-1.53-5.413.996-9.957t7.922-6.08 9.923.998q4.53 2.535 6.06 7.949l7.066 24.985q16.652.208 29.381 7.158 12.727 6.948 24.729 22.43l24.072-6.854q5.395-1.537 9.923.999 4.53 2.535 6.06 7.948 1.531 5.414-.995 9.958-2.527 4.543-7.923 6.08l-21.58 6.145q3.645 16.06-.146 31.986-3.791 15.928-14.302 27.919zm-100.098 39.3q-3.18-11.244-4.315-22.394a121 121 0 0 1-.227-22.207q-8.251 7.298-18.719 12.303-10.467 5.005-21.494 7.245 4.593 16.239 16.581 22.951 11.988 6.709 28.174 2.102m-50.027-59.548q13.281-3.782 22.507-10.007 9.226-6.227 22.585-20.829l-55.691-6.641q-13.45-1.57-20.485 6.058-7.035 7.627-3.856 18.87 3.063 10.827 11.531 13.815 8.468 2.989 23.409-1.266m109.386 69.643q10.374-2.955 14.748-12.073 4.371-9.119-1.187-16.086l-38.428-50.25q-4.117 15.57-4.705 30.136-.59 14.566 2.472 25.393 3.886 13.74 10.721 19.669 6.833 5.93 16.379 3.211m1.245-100.242q2.974-5.346 3.52-12.926t-1.573-15.075q-3.769-13.325-15.076-20.004-11.306-6.68-24.172-3.017-7.47 2.128-13.404 6.516-5.933 4.39-9.203 10.27l36.611 5.773z"/></svg>
